proprietary/assets/icons/vervoersmiddelen/auto-met-zenders-opzij.svg

<svg height="64" viewBox="0 0 64 64" width="64" xmlns="http://www.w3.org/2000/svg"><path d="m0 0h64v64h-64z" fill="none"/><path d="m48.7559 26.2889c.3002-.6861.1029-1.8701-1.0442-2.0919-.5076-.0984-1.4688-.006-2.3177.1141-.6574-2.3667-1.8018-6.2142-2.4698-6.9105-.8961-.9341-4.0371-1.4006-10.9216-1.4006s-10.0256.4665-10.9217 1.4005c-.668.6964-1.8124 4.5438-2.4698 6.9105-.849-.1201-1.8101-.2125-2.3177-.1141-1.147.2218-1.3443 1.4058-1.0442 2.0919.1431.3279.6498.9897 1.4565 1.543-1.3157 1.7682-1.7018 3.3051-1.7018 6.1628v7.809s0 2.7277.3197 4.2486c.1166.5539.6306.9478 1.2225.9478h4.395c.5923 0 1.106-.3939 1.2225-.9476.1783-.8491.2573-2.1876.2922-2.9824l-4.1678-.8283c-.2157-.0692-.1841-.2091-.1699-.2473h13.8846 13.8846c.0142.0382.0457.1782-.1699.2473l-4.168.8283c.0349.7947.1139 2.1332.2922 2.9824.1165.5537.6301.9476 1.2224.9476h4.3951c.5923 0 1.106-.3939 1.2225-.9476.3197-1.5209.3123-4.2486.3123-4.2486s0-4.1167 0-7.809c0-2.8578-.3787-4.3946-1.6945-6.1628.8068-.5534 1.3134-1.2152 1.4565-1.5431zm-25.6637-7.0694c.399-.1982 3.3287-.5371 8.9104-.5371s8.5113.3389 8.9103.5371c.3954.6704 1.6574 5.0186 2.0176 6.7739-1.9867.5514-6.5099.9258-10.9279.9258s-8.9413-.3744-10.928-.9258c.3603-1.7553 1.6222-6.1035 2.0176-6.7739zm1.0797 17.641-4.0037-.3196c-1.0847-.0865-1.7493-.9509-1.9482-1.8989l-.165-1.1452c-.1019-.7083.6265-1.3093 1.3446-1.1098l3.2408.8992c.7048.2709 1.2374.8209 1.4645 1.5113l.4442 1.6475c.0591.2186-.1381.4354-.3772.4155zm11.8281 2.1395h-8v-2h8zm9.9501-5.5032-.165 1.1452c-.1989.9479-.8636 1.8124-1.9482 1.8989l-4.0036.3196c-.2391.0199-.4363-.1969-.3772-.4155l.4442-1.6475c.2271-.6904.7596-1.2404 1.4642-1.5113l3.241-.8992c.7182-.1996 1.4466.4015 1.3446 1.1098z"/><path d="m55.9413 23.7052-.9916 1.7354c3.6115 2.0684 6.0503 5.9519 6.0503 10.412s-2.4388 8.3436-6.0502 10.412l.9915 1.7354c4.2134-2.4131 7.0587-6.9439 7.0587-12.1474s-2.8453-9.7343-7.0587-12.1474z"/><path d="m59 35.8526c0-3.7167-2.0323-6.953-5.0419-8.6767l-.9916 1.7354c2.4076 1.3789 4.0335 3.9679 4.0335 6.9413s-1.6259 5.5624-4.0335 6.9413l.9916 1.7354c3.0096-1.7237 5.0419-4.96 5.0419-8.6767z"/><path d="m55 35.8526c0-2.2301-1.2194-4.1718-3.0251-5.206l-.9987 1.7478c1.2035.6895 2.0238 1.9717 2.0238 3.4582s-.8203 2.7687-2.0239 3.4582l.9987 1.7478c1.8058-1.0342 3.0252-2.9759 3.0252-5.206z"/><path d="m3 35.8526c0-4.4601 2.4388-8.3436 6.0502-10.412l-.9916-1.7354c-4.2133 2.4131-7.0586 6.9439-7.0586 12.1474s2.8453 9.7343 7.0587 12.1474l.9916-1.7354c-3.6115-2.0684-6.0503-5.9519-6.0503-10.412z"/><path d="m7 35.8526c0-2.9734 1.6259-5.5624 4.0335-6.9413l-.9916-1.7354c-3.0096 1.7237-5.0419 4.96-5.0419 8.6767s2.0323 6.953 5.0419 8.6767l.9916-1.7354c-2.4076-1.3789-4.0335-3.9679-4.0335-6.9413z"/><path d="m13.0239 32.3944-.9987-1.7478c-1.8058 1.0342-3.0252 2.9759-3.0252 5.206s1.2194 4.1718 3.0251 5.206l.9987-1.7478c-1.2035-.6895-2.0238-1.9717-2.0238-3.4582s.8203-2.7687 2.0239-3.4582z"/></svg>

<?xml version="1.0" encoding="utf-8"?>
<!-- Generator: Adobe Illustrator 19.1.0, SVG Export Plug-In . SVG Version: 6.00 Build 0)  -->
<svg version="1.2" baseProfile="tiny" xmlns="http://www.w3.org/2000/svg" xmlns:xlink="http://www.w3.org/1999/xlink" x="0px"
	 y="0px" width="64px" height="64px" viewBox="0 0 64 64" xml:space="preserve">
<g id="Box">
	<rect fill="none" width="64" height="64"/>
</g>
<g id="Icon">
	<g>
		<path d="M48.7559,26.2889c0.3002-0.6861,0.1029-1.8701-1.0442-2.0919c-0.5076-0.0984-1.4688-0.006-2.3177,0.1141
			c-0.6574-2.3667-1.8018-6.2142-2.4698-6.9105C42.0281,16.4665,38.8871,16,32.0026,16c-6.8845,0-10.0256,0.4665-10.9217,1.4005
			c-0.668,0.6964-1.8124,4.5438-2.4698,6.9105c-0.849-0.1201-1.8101-0.2125-2.3177-0.1141
			c-1.147,0.2218-1.3443,1.4058-1.0442,2.0919c0.1431,0.3279,0.6498,0.9897,1.4565,1.543
			c-1.3157,1.7682-1.7018,3.3051-1.7018,6.1628c0,3.6923,0,7.809,0,7.809s0,2.7277,0.3197,4.2486
			C15.4402,46.6061,15.9542,47,16.5461,47h4.395c0.5923,0,1.106-0.3939,1.2225-0.9476c0.1783-0.8491,0.2573-2.1876,0.2922-2.9824
			l-4.1678-0.8283c-0.2157-0.0692-0.1841-0.2091-0.1699-0.2473h13.8846h13.8846c0.0142,0.0382,0.0457,0.1782-0.1699,0.2473
			L41.5494,43.07c0.0349,0.7947,0.1139,2.1332,0.2922,2.9824C41.9581,46.6061,42.4717,47,43.064,47h4.3951
			c0.5923,0,1.106-0.3939,1.2225-0.9476c0.3197-1.5209,0.3123-4.2486,0.3123-4.2486s0-4.1167,0-7.809
			c0-2.8578-0.3787-4.3946-1.6945-6.1628C48.1062,27.2786,48.6128,26.6168,48.7559,26.2889z M23.0922,19.2195
			c0.399-0.1982,3.3287-0.5371,8.9104-0.5371c5.5817,0,8.5113,0.3389,8.9103,0.5371c0.3954,0.6704,1.6574,5.0186,2.0176,6.7739
			c-1.9867,0.5514-6.5099,0.9258-10.9279,0.9258s-8.9413-0.3744-10.928-0.9258C21.4349,24.2381,22.6968,19.8899,23.0922,19.2195z
			 M24.1719,36.8605l-4.0037-0.3196c-1.0847-0.0865-1.7493-0.9509-1.9482-1.8989l-0.165-1.1452
			c-0.1019-0.7083,0.6265-1.3093,1.3446-1.1098l3.2408,0.8992c0.7048,0.2709,1.2374,0.8209,1.4645,1.5113l0.4442,1.6475
			C24.6082,36.6636,24.411,36.8804,24.1719,36.8605z M36,39h-8v-2h8V39z M45.9501,33.4968l-0.165,1.1452
			c-0.1989,0.9479-0.8636,1.8124-1.9482,1.8989l-4.0036,0.3196c-0.2391,0.0199-0.4363-0.1969-0.3772-0.4155l0.4442-1.6475
			c0.2271-0.6904,0.7596-1.2404,1.4642-1.5113l3.241-0.8992C45.3237,32.1874,46.0521,32.7885,45.9501,33.4968z"/>
		<path d="M55.9413,23.7052l-0.9916,1.7354C58.5612,27.509,61,31.3925,61,35.8526s-2.4388,8.3436-6.0502,10.412L55.9413,48
			C60.1547,45.5869,63,41.0561,63,35.8526S60.1547,26.1183,55.9413,23.7052z"/>
		<path d="M59,35.8526c0-3.7167-2.0323-6.953-5.0419-8.6767l-0.9916,1.7354C55.3741,30.2902,57,32.8792,57,35.8526
			s-1.6259,5.5624-4.0335,6.9413l0.9916,1.7354C56.9677,42.8056,59,39.5693,59,35.8526z"/>
		<path d="M55,35.8526c0-2.2301-1.2194-4.1718-3.0251-5.206l-0.9987,1.7478C52.1797,33.0839,53,34.3661,53,35.8526
			s-0.8203,2.7687-2.0239,3.4582l0.9987,1.7478C53.7806,40.0244,55,38.0827,55,35.8526z"/>
		<path d="M3,35.8526c0-4.4601,2.4388-8.3436,6.0502-10.412l-0.9916-1.7354C3.8453,26.1183,1,30.6491,1,35.8526
			S3.8453,45.5869,8.0587,48l0.9916-1.7354C5.4388,44.1962,3,40.3127,3,35.8526z"/>
		<path d="M7,35.8526c0-2.9734,1.6259-5.5624,4.0335-6.9413l-0.9916-1.7354C7.0323,28.8996,5,32.1359,5,35.8526
			s2.0323,6.953,5.0419,8.6767l0.9916-1.7354C8.6259,41.415,7,38.826,7,35.8526z"/>
		<path d="M13.0239,32.3944l-0.9987-1.7478C10.2194,31.6808,9,33.6225,9,35.8526s1.2194,4.1718,3.0251,5.206l0.9987-1.7478
			C11.8203,38.6213,11,37.3391,11,35.8526S11.8203,33.0839,13.0239,32.3944z"/>
	</g>
</g>
</svg>
